X:5813
T:Scartaglen Reel, The
T:New Road, The
T:New Post Office Reel, The
O:england
R:reel
H:Also in D, #698
D:Dervish: The Boys of Sligo
M:C|
K:Dmix
DFEF D2AB|c2cG EFGE|DFEF D2AB|cAGE ED~D2|
DFEF D2AB|cAAG EFGE|Add^c dfed|=cAGE ED~D2:|
|:~f3e fage|f2df ageg|~f3e fage|fde^c Adde|
~f3e fage|f2df ageg|fage dfed|cAAG EFGE:|
